X: 9531
T: Darling Reprise, The
R: reel
M: 4/4
K: Amajor
f|cF F/F/F|cFF f|cFce f2 fa|cF F/F/F|cFF f|ec Ac B2B:|
d|cf fg accB|cf fg a2 gf|cf fg af ca|ec Ac B2 Bd|
cf fg accB|cf fg a2 gb|fa gf ec ca|ec ac B2B||

